!!!SOCIAL_FUNCTION:	unclassified songs
!!!PDT:	1909
!!!OTL: No_195_Friendly_Song_(d).krn
!!!REG: Great_Lakes
!!!LANG: Non-Tone
!!!LING_GROUP: Algonquin
**kern
*staff1
=1-
*clefF4
*k[f#c#]
*M3/4
8.d\L
16c#\Jk
4B\
4d\
=2
2.d\
=3||
*M2/4
8.d\L
16d\Jk
4d\
=4||
*M3/4
8.c#\L
16c#\Jk
4c#\
4c#\
=5||
*M2/4
8.A\L
16A\Jk
4A\
=6
4F#\
4F#\
=7
8.E\L
16E\Jk
4E\
=8||
*M3/4
8.D\L
16D\Jk
4D\
4BB/
=9
Eq/
4E\
8.E\L
16E\Jk
4E\
=10||
*M2/4
2E\
=11
8.E\L
16E\Jk
4E\
=12
8F#\L
[8E\J
4E\]
=13
(F#q/
8E`\L)
8D`\J
4BB/
=14
[4BB/
8.BB/L]
16BB/Jk
=15||
*M3/4
2.BB/
=16||
*M2/4
8.d\L
16d\Jk
8.B\L
16B\Jk
=17
4d\
4d\
=18
8.d\L
16d\Jk
12d\L
12d\
12d\J
=19
8.c#\L
16c#\Jk
8.c#\L
16c#\Jk
=20
8.B\L
16B\Jk
8.B\L
16G\Jk
=21
8.F#\L
16F#\Jk
4F#\
=22
8.E\L
16E\Jk
4E\
=23||
*M3/4
8.D\L
16D\Jk
4D\
4BB/
=24||
*M2/4
8.E\L
16E\Jk
[4E\
=25
2E\]
=26
8.E\L
16E\Jk
4E\
=27
8F#^\L
[8E\J
4E\]
=28
F#q/
8E\L
8D\J
8.BB/L
16BB/Jk
=29||
*M3/4
2.BB/
==
*-
